img/icons/File_EXEL 2.svg

<svg width="24" height="24" viewBox="0 0 24 24" fill="none" xmlns="http://www.w3.org/2000/svg">
<path d="M12.6101 20.54L3.08008 18.54V5.45996L12.6101 3.45996V20.54Z" stroke="#8C8D92" stroke-width="2" stroke-linecap="round" stroke-linejoin="round"/>
<path d="M12.6104 6.03003H20.9204V17.97H13.4704" stroke="#8C8D92" stroke-width="2" stroke-linecap="round" stroke-linejoin="round"/>
<path d="M5.87988 9.78003L9.61988 14.06" stroke="#8C8D92" stroke-width="2" stroke-linecap="round" stroke-linejoin="round"/>
<path d="M9.72988 9.29004L5.87988 14.24" stroke="#8C8D92" stroke-width="2" stroke-linecap="round" stroke-linejoin="round"/>
<path d="M12.6104 9.13989H14.7604" stroke="#8C8D92" stroke-width="2" stroke-linecap="round" stroke-linejoin="round"/>
<path d="M17.3804 9.13989H18.2404" stroke="#8C8D92" stroke-width="2" stroke-linecap="round" stroke-linejoin="round"/>
<path d="M12.6104 12H14.7604" stroke="#8C8D92" stroke-width="2" stroke-linecap="round" stroke-linejoin="round"/>
<path d="M17.3804 12H18.2404" stroke="#8C8D92" stroke-width="2" stroke-linecap="round" stroke-linejoin="round"/>
<path d="M12.6104 14.8599H14.7604" stroke="#8C8D92" stroke-width="2" stroke-linecap="round" stroke-linejoin="round"/>
<path d="M17.3804 14.8599H18.2404" stroke="#8C8D92" stroke-width="2" stroke-linecap="round" stroke-linejoin="round"/>
</svg>

<svg width="24" height="24" fill="none" xmlns="http://www.w3.org/2000/svg"><path d="m12.61 20.54-9.53-2V5.46l9.53-2v17.08Zm0-14.51h8.31v11.94h-7.45M5.88 9.78l3.74 4.28m.11-4.77-3.85 4.95m6.73-5.1h2.15m2.62 0h.86M12.61 12h2.15m2.62 0h.86m-5.63 2.86h2.15m2.62 0h.86" stroke="#8C8D92" stroke-width="2" stroke-linecap="round" stroke-linejoin="round"/></svg>
